X: 1285
T: Kûşe-i Nisyânda
C: Ahmet Avni Konuk
O: Turkey
F: http://compmusic.upf.edu/node/140
N: tarzicedid--kupe--aksaksemai--kuse-yi--ahmet_avni_konuk
N: makam= tarzicedid
N: form= kupe
N: usul= aksaksemai = 10/8
M: 10/8
L: 1/16
K: C _B   
Q: 1/4=102
%%MIDI tuningsystem comma53
d4 e2f2 {g}feed d^3/4cd4z2  | f4 f2gf fef2 g2a4z2  | 
w:  Kû şe  i  *  *  *  *  *  *  *  nis  |  yân da  lâ *  *  *  *  *  yık   | 
a2g2 b2a2 g2f2 e2f2 {g}fed2  | d4 d^3/4ccB BAB2 c2d4z2  | 
w:  mı  *  ka la  *  *  *  Tarz_  |  ı  Ce *  dîd    | 
d4 d2^c2 d2_e2 {f}edd3/2c/ B2z2  | \
w:  Sey ri ni  *  *  *  *  *  bu   | 
c4 c2c2 _e2d2 c2dc BAG2  | 
w:  bey ti miz *  *  *  de   | 
B4 B2B2 A2A2 G2G2 ABF2  | GBA2 G2G2 {A}GFEF GEF4z2  | 
w:  ey le dik  *  *  *  ez   |  nev  *  *  be dîd    | 
|


